!!!COM: Music21
!!!OTL: Marcha procesional
!!!OMV: pezas_marchas_marcha-procesional-13_marcha-procesional-partitura.musicxml
**kern
*I"Bagpipes
*I'Bag
*clefG^2
*k[]
*M6/8
=1
!LO:TX:a:t=Andante
*MM105
!LO:TX:a:t=[quarter]=105
2r
8r
8ccc
=||
40%3bbL
40%3aa
40%3gg
40%3aa
40%3bbJ
4gg
8ccc
=
40%3bbL
40%3aa
40%3gg
40%3aa
40%3bbJ
4gg
8gg
=||
40%3bbL
40%3aa
40%3gg
40%3aa
40%3bbJ
4gg
8ccc
=
40%3bbL
40%3aa
40%3gg
40%3aa
40%3bbJ
4gg
8gg
=||
12ffL
12ee
12dd
8ggJ
12eeL
12dd
12cc
8ggJ
!!linebreak:original
=
12ddL
12cc
12b
8ddJ
4cc
8gg
=||
12ffL
12ee
12dd
8ggJ
12eeL
12dd
12cc
8ggJ
=
12ddL
12cc
12b
8ddJ
4cc
8gg
=||
*-
